!!!CDT:
!!!PTL: Il primo libro de madrigali a cinque voci
!!!PPP: Venice
!!!PPR: Angelo Gardano
!!!PDT: 1586
!!!RISM: G 2459
!!!rime: 288
!!!AGN: Madrigal
!!!SCT: Trm0288c
!!!SCA: Trm0288c
!!!voices:
!!!COM: Giovannelli, Ruggiero
!!!OTL: Amatemi, ben mio 
**kern	**text	**kern	**text	**kern	**text	**kern	**text	**kern	**text
*part5	*part5	*part4	*part4	*part3	*part3	*part2	*part2	*part1	*part1
*staff5	*staff5	*staff4	*staff4	*staff3	*staff3	*staff2	*staff2	*staff1	*staff1
*I"Basso	*	*I"Tenore	*	*I"Alto	*	*I"Quinto	*	*I"Canto	*
*I'B	*	*I'T	*	*I'A	*	*I'V	*	*I'C	*
*oclefF3	*	*oclefC3	*	*oclefC2	*	*oclefG2	*	*oclefG2	*
*clefF4	*	*clefGv2	*	*clefG2	*	*clefG2	*	*clefG2	*
*k[b-]	*	*k[b-]	*	*k[b-]	*	*k[b-]	*	*k[b-]	*
*F:	*	*F:	*	*F:	*	*F:	*	*F:	*
*omet(C)	*	*omet(C)	*	*omet(C)	*	*omet(C)	*	*omet(C)	*
*M4/2	*	*M4/2	*	*M4/2	*	*M4/2	*	*M4/2	*
=1	=1	=1	=1	=1	=1	=1	=1	=1	=1
0r	.	1r	.	1r	.	2r	.	2dd	A-
.	.	.	.	.	.	2dd	A-	4.ff	-ma-
.	.	.	.	.	.	.	.	8ee	-te-
.	.	2r	.	2d	A-	4.ff	-ma-	2dd	-mi,
.	.	.	.	.	.	8ee	-te-	.	.
.	.	2G	A-	4.b-y	-ma-	2dd	-mi,	4r	.
.	.	.	.	.	.	.	.	4b-y	A-
.	.	.	.	8a	-te-	.	.	.	.
=2	=2	=2	=2	=2	=2	=2	=2	=2	=2
2G	A-	4.B-y	-ma-	4g	-mi,	4r	.	4.dd	-ma-
.	.	.	.	2g	A-	4b-y	<A-	.	.
.	.	8A	-te-	.	.	.	.	8cc	-te-
4.B-y	-ma-	4G	-mi,	.	.	4.dd	-ma-	4b-y	-mi,
.	.	4G	A-	4.b-y	-ma-	.	.	4b-y	A-
8A	-te-	.	.	.	.	8cc	-te-	.	.
4G	-mi,	4.B-y	-ma-	.	.	4b-y	-mi,>	4.dd	-ma-
.	.	.	.	8a	-te-	.	.	.	.
4G	A-	.	.	2g	-mi,	4b-y	A-	.	.
.	.	8A	-te-	.	.	.	.	8cc	-te-
4.B-y	-ma-	2G	-mi,	.	.	4.dd	-ma-	[2b-y	-mi,
.	.	.	.	4d	ben	.	.	.	.
8A	-te-	.	.	.	.	8cc	-te-	.	.
=3	=3	=3	=3	=3	=3	=3	=3	=3	=3
4G	-mi,	2B-y	ben	4.d	mi-	4b-y	-mi,	4b-]	.
4B-y	ben	.	.	.	.	4dd	ben	4b-y	ben
.	.	.	.	8e	.	.	.	.	.
2F	mi-	2c	mi-	2f	.	2cc	mi-	2a	mi-
2BB-y	-o,	2B-y	-o,	2f	-o,	2dd	-o,	2b-y	-o,
4r	.	4r	.	4r	.	4r	.	4r	.
4B-y	Poi	4d	Poi	4b-y	Poi	4ff	Poi	4dd	Poi
=4	=4	=4	=4	=4	=4	=4	=4	=4	=4
4B-y	che	4d	che	4b-y	che	4ff	che	4dd	che
4F	sde-	4A	sde-	4a	sde-	4ff	sde-	4cc	sde-
4G	-gn'il	4G	-gn'il	4d	-gn'il	4dd	-gn'il	4bnX	-gn'il
4C	mio	4G	mio	4g	mio	4ee-X	mio	4cc	mio
4D	co-	4d	co-	4f#X	co-	4dd	co-	4a	co-
8D	-re	8d	-re	8f#i	-re	8dd	-re	8a	-re
8D	O-	8d	O-	8f#i	O-	8dd	O-	8a	O-
4D	-gn'al-	4d	-gn'al-	4f#i	-gn'al-	4dd	-gn'al-	4a	-gn'al-
4G	-tro	4d	-tro	4g	-tro	4dd	-tro	4b-i	-tro
=5	=5	=5	=5	=5	=5	=5	=5	=5	=5
4F	ci-	4A	ci-	4a	ci-	4ff	ci-	4cc	ci-
4F	-bo e	4A	-bo e	4a	-bo e	4ff	-bo e	4cc	-bo e
4F	vi-	4F	vi-	4a	vi-	4ff	vi-	4cc	vi-
4C	-ve	4G	-ve	4g	-ve	4ee-X	-ve	4cc	-ve
4D	sol	4d	sol	4f#X	sol	4dd	sol	4a	sol
4E-X	d'a-	4G	d'a-	4g	d'a-	4cc	d'a-	4g	d'a-
2D	-mo-	2d	-mo-	2f#X	-mo-	2dd	-mo-	2a	-mo-
=6	=6	=6	=6	=6	=6	=6	=6	=6	=6
1G	-re,	1d	-re,	1g	-re,	4dd	-re,	2bnX	-re,
.	.	.	.	.	.	4dd	A-	.	.
.	.	.	.	.	.	4.gg	-ma-	4r	.
.	.	.	.	.	.	.	.	4dd	A-
.	.	.	.	.	.	8ff	-te-	.	.
1r	.	2r	.	4r	.	4ee	-mi,	4.gg	-ma-
.	.	.	.	4g	A-	4dd	ben	.	.
.	.	.	.	.	.	.	.	8ff	-te-
.	.	4r	.	4.cc	-ma-	4cc	mi-	4.ee	-mi,
.	.	4c	A-	.	.	4g	-o,	.	.
.	.	.	.	8b-y	-te-	.	.	8dd	ben
=7	=7	=7	=7	=7	=7	=7	=7	=7	=7
4r	.	4.f	-ma-	4.a	-mi,	4r	.	4cc	mi-
4F	A-	.	.	.	.	4a	A-	4cc	-o,
.	.	8e	-te-	8g	ben	.	.	.	.
4.B-y	-ma-	4d	-mi,	4f	mi-	4.dd	-ma-	4r	.
.	.	2d	A-	4f	-o,	.	.	4dd	A-
8A	-te-	.	.	.	.	8cc	-te-	.	.
1G	-mi,	.	.	1r	.	4b-y	-mi,	4.gg	-ma-
.	.	2g	-ma-	.	.	4dd	A-	.	.
.	.	.	.	.	.	.	.	8ff	-te-
.	.	.	.	.	.	4.gg	-ma-	4ee	-mi,
.	.	4g	-te-	.	.	.	.	4dd	A-
.	.	.	.	.	.	8ff	-te-	.	.
=8	=8	=8	=8	=8	=8	=8	=8	=8	=8
1G	ben	2.g	-mi,	1r	.	4ee	-mi,	4.gg	-ma-
.	.	.	.	.	.	4dd	A-	.	.
.	.	.	.	.	.	.	.	8ff	-te-
.	.	.	.	.	.	4.gg	-ma-	4ee	-mi,
.	.	4d	ben	.	.	.	.	4dd	ben
.	.	.	.	.	.	8ff	-te-	.	.
1A	mi-	1a	mi-	2r	.	4ee	-mi,>	4cc#X	mi-
.	.	.	.	.	.	4ff	ben	2dd	.
.	.	.	.	4r	.	2ee	mi-	.	.
.	.	.	.	4a	Poi	.	.	4cc#X	.
=9	=9	=9	=9	=9	=9	=9	=9	=9	=9
2D	-o,	2f#X	-o,	2a	che,	2dd	-o,	2dd	-o,
4r	.	4r	.	4r	.	4r	.	4r	.
4D	Poi	4d	Poi	4f#X	Poi	4dd	Poi	4a	Poi
4G	che	4d	che	4g	che	4dd	che	4b-y	che
4G	sde-	4d	sde-	4g	sde-	4dd	sde-	4b-y	sde-
4G	-gn'il	4B-y	-gn'il	4g	-gn'il	4dd	-gn'il	4b-y	-gn'il
4F	mio	4A	mio	4a	mio	4ff	mio	4cc	mio
=10	=10	=10	=10	=10	=10	=10	=10	=10	=10
4B-y	co-	4d	co-	4b-y	co-	4ff	co-	4dd	co-
8B-y	-re	8d	-re	8b-y	-re	8ff	-re	8dd	-re
8B-y	O-	8d	O-	8b-y	O-	8ff	O-	8dd	O-
4B-y	-gn'al-	4d	-gn'al-	4b-y	-gn'al-	4ff	-gn'al-	4dd	-gn'al-
4F	-tro	4A	-tro	4a	-tro	4ff	-tro	4cc	-tro
4G	ci-	4B-y	ci-	4g	ci-	4dd	ci-	4b-y	ci-
4D	-bo e	4d	-bo e	4f#X	-bo e	4dd	-bo e	4a	-bo e
4E-X	vi-	4G	vi-	4g	vi-	4b-y	vi-	4g	vi-
4C	-ve	4G	-ve	4g	-ve	4ee-i	-ve	4cc	-ve
=11	=11	=11	=11	=11	=11	=11	=11	=11	=11
4D	sol	4d	sol	4f#X	sol	4dd	sol	4a	sol
4E-X	d'a-	4G	d'a-	4g	d'a-	4cc	d'a-	4g	d'a-
2D	-mo-	2d	-mo-	2f#X	-mo-	2dd	-mo-	2a	-mo-
2G	-re.	2d	-re.	4g	-re.	2dd	-re.	4bnX	-re.
.	.	.	.	8g	V'a-	.	.	8b-i	V'a-
.	.	.	.	8a	-me-	.	.	8cc	-me-
4r	.	2r	.	4b-y	-rò,	4r	.	2dd	-rò,
8G	V'a-	.	.	8b-y	se	8b-y	V'a-	.	.
8A	-me-	.	.	8a	m'a-	8cc	-me-	.	.
=12	=12	=12	=12	=12	=12	=12	=12	=12	=12
2B-y	-rò,	4r	.	2g	-ma-	2dd	-rò,	4r	.
.	.	8G	V'a-	.	.	.	.	8b-y	V'a-
.	.	8A	-me-	.	.	.	.	8cc	-me-
4r	.	4B-y	-rò,	2g	-te,	4r	.	4dd	-rò,
8G	V'a-	8B-y	se	.	.	8b-y	V'a-	8dd	se
8A	-me-	8A	m'a-	.	.	8cc	-me-	8cc	m'a-
4B-y	-rò,	4G	-ma-	4r	.	4dd	-rò,	4b-y	-ma-
8B-y	se	4G	-te,	8g	V'a-	8dd	se	4b-y	-te,
8A	m'a-	.	.	8a	-me-	8cc	m'a-	.	.
4G	-ma-	4r	.	4b-y	-rò,	4b-y	-ma-	4r	.
4G	-te,	8G	V'a-	8b-y	se	4g	-te,	8b-y	<V'a-
.	.	8A	-me-	8a	m'a-	.	.	8cc	-me-
=13	=13	=13	=13	=13	=13	=13	=13	=13	=13
4r	.	4B-y	-rò,	2g	-ma-	4r	.	4dd	-rò,
8G	V'a-	8B-y	se	.	.	8b-y	V'a-	8dd	se
8A	-me-	8A	m'a-	.	.	8cc	-me-	8cc	m'a-
4B-y	-rò,	2G	-ma-	2g	-te,	4dd	-rò,	4b-y	-ma-
8B-y	se	.	.	.	.	8dd	se	4b-y	-te,>
8A	m'a-	.	.	.	.	8cc	m'a-	.	.
1G	-ma-	2d	-te,	1r	.	4.b-y	-ma-	4r	.
.	.	.	.	.	.	.	.	8b-y	V'a-
.	.	.	.	.	.	8a	.	8cc	-me-
.	.	4r	.	.	.	2g	.	[2dd	-rò,
.	.	8d	<V'a-	.	.	.	.	.	.
.	.	8e	-me-	.	.	.	.	.	.
=14	=14	=14	=14	=14	=14	=14	=14	=14	=14
1F	-te,	4f	-rò,	1r	.	4.a	.	4dd]	.
.	.	8e	se	.	.	.	.	8cc	se
.	.	8d	m'a-	.	.	8b-y	.	8b-y	m'a-
.	.	2c	-ma-	.	.	2cc	.	2a	-ma-
2r	.	1B-y	-te,>	2r	.	1dd	-te,	2b-y	-te,
2B-y	Né	.	.	4r	.	.	.	4r	.
.	.	.	.	[4b-y	Né	.	.	[4dd	Né
=15	=15	=15	=15	=15	=15	=15	=15	=15	=15
2F	men	1r	.	4b-]	.	1r	.	4dd]	.
.	.	.	.	2a	men	.	.	2cc	men
2G	del-	.	.	.	.	.	.	.	.
.	.	.	.	4g	del-	.	.	4b-y	del-
2D	-la	4r	.	4f	-la	4r	.	2a	-la
.	.	2d	Né	4f	mia	2ff	Né	.	.
2AA	mia	.	.	4a	vi-	.	.	2a	mia
.	.	[4c	men	4a	-ta	[4ee	men	.	.
=16	=16	=16	=16	=16	=16	=16	=16	=16	=16
1A	vi-	4c]	.	1r	.	4ee]	.	2a	vi-
.	.	4d	del-	.	.	2dd	del-	.	.
.	.	4e	-la	.	.	.	.	2a	-ta
.	.	4f	mia	.	.	2cc	-la	.	.
[1G	-ta	4e	vi-	1g	L'a-	.	.	1r	.
.	.	2d	.	.	.	4b-y	mia	.	.
.	.	.	.	.	.	2ee-i	vi-	.	.
.	.	[4c	.	.	.	.	.	.	.
=17	=17	=17	=17	=17	=17	=17	=17	=17	=17
1G]	.	4c]	.	2g	-mor	2dd	-ta	1r	.
.	.	8BnXL	.	.	.	.	.	.	.
.	.	8AJ	.	.	.	.	.	.	.
.	.	2BnX	.	2d	fia	4r	.	.	.
.	.	.	.	.	.	4gg	L'a-	.	.
1C	L'a-	2.c	-ta	1g	lun-	4ee	-mor	2r	.
.	.	.	.	.	.	2ff	fia	.	.
.	.	.	.	.	.	.	.	2cc	L'a-
.	.	4c	L'a-	.	.	4ee	lun-	.	.
=18	=18	=18	=18	=18	=18	=18	=18	=18	=18
1F	-mor	4c	-mor	2f	-go,	1ff	-go,	4a	-mor
.	.	4d	fia	.	.	.	.	2b-y	fia
.	.	2c	lun-	2f	L'a-	.	.	.	.
.	.	.	.	.	.	.	.	4a	lun-
1BB-y	fu	1B-y	-go	4f	-mor	2r	.	1b-y	-go,
.	.	.	.	4d	fia	.	.	.	.
.	.	.	.	2f	lun-	2dd	L'a-	.	.
=19	=19	=19	=19	=19	=19	=19	=19	=19	=19
1C	lon-	2r	.	4e	.	4g	-mor	2r	.
.	.	.	.	2f	.	4a	fia	.	.
.	.	2c	l'a-	.	.	2g	lun-	4r	.
.	.	.	.	4e	.	.	.	4g	L'a-
2.D	-go	4A	-mor	1d	-go	2dd	-go	4f#X	-mor
.	.	4B-y	fia	.	.	.	.	2g	fia
.	.	2A	lun-	.	.	4r	.	.	.
4D	e	.	.	.	.	4a	e	4f#X	lun-
=20	=20	=20	=20	=20	=20	=20	=20	=20	=20
4.G	fia	2G	-go	2r	.	4.b-y	fia	2g	-go
8A	con	.	.	.	.	8cc	con	.	.
4B-y	lui	4r	.	4r	.	4dd	lui	4r	.
4c	fi-	4c	e	4g	e	4ee	fi-	4cc	e
2F	-ni-	4A	fia	4.a	fia	4ff	-ni-	4.cc	fia
.	.	4F	con	.	.	4ff	-ta,	.	.
.	.	.	.	8b-y	con	.	.	8dd	con
4C	-ta,	4G	lui	4cc	lui	4r	.	4ee	lui
4C	e	4c	fi-	4cc	fi-	4cc	<e	4ee	fi-
=21	=21	=21	=21	=21	=21	=21	=21	=21	=21
4.F	fia	2c	-ni-	2cc	-ni-	4.a	fia	4ff	-ni-
.	.	.	.	.	.	.	.	4ff	-ta,
8G	con	.	.	.	.	8b-y	con	.	.
4A	lui	4c	-ta	4a	-ta,	4cc	lui	4r	.
4c	fi-	4A	<e	4a	<e	4cc	fi-	4cc	e
2F	-ni-	4c	fia	4.f	fia	4cc	-ni-	4.a	fia
.	.	4c	con	.	.	4cc	-ta,>	.	.
.	.	.	.	8g	con	.	.	8b-y	con
4F	-ta,	4c	lui	4a	lui	4r	.	4cc	lui
4F	<e	4c	fi-	4a	fi-	4ff	e	4cc	fi-
=22	=22	=22	=22	=22	=22	=22	=22	=22	=22
4.BB-y	fia	4B-y	-ni-	4b-y	-ni-	4.ff	fia	4dd	-ni-
.	.	4B-y	-ta,>	2f	-ta,>	.	.	4dd	-ta,
8C	con	.	.	.	.	8ee	con	.	.
4D	lui	4r	.	.	.	4dd	lui	2r	.
4E-X	fi-	4G	e	4g	e	4cc	fi-	.	.
1D	-ni-	4.F	fia	4.a	fia	[1dd	-ni-	4r	.
.	.	.	.	.	.	.	.	4a	con
.	.	8G	con	8g	con	.	.	.	.
.	.	4A	lui	4f	lui	.	.	4a	lui
.	.	4B-y	fi-	4d	fi-	.	.	4g	fi-
=23	=23	=23	=23	=23	=23	=23	=23	=23	=23
1D	-ta.>	1A	-ni-	1d	-ni-	1dd]	.	4g	-ni-
.	.	.	.	.	.	.	.	8f#XL	.
.	.	.	.	.	.	.	.	8eJ	.
.	.	.	.	.	.	.	.	2f#X	.
2r	.	1G	-ta.	2d	-ta.	2bnX	-ta.	2g	-ta.
4G	Ma	.	.	4g	Ma	4dd	Ma	4b-y	Ma
4G	s'a-	.	.	4g	s'a-	4dd	s'a-	4b-y	s'a-
=24	=24	=24	=24	=24	=24	=24	=24	=24	=24
2G	-mar-	0r	.	2g	-mar-	2dd	-mar-	2b-y	-mar-
4G	-mi	.	.	4g	-mi	4dd	-mi	4b-y	-mi
4c	ne-	.	.	4g	ne-	4ee	ne-	4cc	ne-
2B-y	-ga-	.	.	4b-y	-ga-	2ff	-ga-	2dd	-ga-
.	.	.	.	4b-y	-te,	.	.	.	.
4B-y	-te,	.	.	2r	.	4ff	-te,	4dd	-te,
8d	Mo-	.	.	.	.	8ff	Mo-	8dd	Mo-
8c	-ri-	.	.	.	.	8ee	-ri-	8ee	-ri-
=25	=25	=25	=25	=25	=25	=25	=25	=25	=25
4B-y	-rò	2r	.	4d	Mo-	4dd	-rò	2ff	-rò,
8A	de-	.	.	4e	-ri-	8cc	de-	.	.
8G	-spe-	.	.	.	.	8b-y	-spe-	.	.
4F	-ra-	4r	.	2f	-rò	4a	-ra-	4r	.
4D	-to,	8d	Mo-	.	.	4f	-to,	8ff	Mo-
.	.	8c	-ri-	.	.	.	.	8ee	-ri-
2r	.	4B-y	-rò	4.f	de-	2r	.	4dd	-rò
.	.	8A	de-	.	.	.	.	8cc	de-
.	.	8G	-spe-	8g	-spe-	.	.	8b-y	-spe-
4r	.	4F	-ra-	2a	-ra-	4r	.	4a	-ra-
8d	Mo-	4D	-to,	.	.	8ff	Mo-	4f	-to,
8c	-ri-	.	.	.	.	8ee	-ri-	.	.
=26	=26	=26	=26	=26	=26	=26	=26	=26	=26
4B-y	-rò	2r	.	4d	-to,	4dd	-rò	1r	.
8A	de-	.	.	8a	<Mo-	8cc	de-	.	.
8G	-spe-	.	.	8b-y	-ri-	8b-y	-spe-	.	.
4.F	-ra-	4r	.	4cc	-rò	4a	-ra-	.	.
.	.	8a	Mo-	8f	de-	4a	-to,	.	.
8E	.	8g	-ri-	8g	-spe-	.	.	.	.
4.D	.	2f	-rò,	4a	-ra-	4r	.	4r	.
.	.	.	.	4a	-to,>	8dd	Mo-	8ff	Mo-
8C	.	.	.	.	.	8ee	-ri-	8ee	-ri-
4.BB-y	.	4r	.	4r	.	2ff	-rò	4dd	-rò
.	.	8f	Mo-	8d	Mo-	.	.	8dd	de-
8C	.	8e	-ri-	8e	-ri-	.	.	8cc	-spe-
=27	=27	=27	=27	=27	=27	=27	=27	=27	=27
1D	.	4d	-rò	4f	-rò	4.ff	de-	4b-y	-ra-
.	.	8c	de-	8f	de-	.	.	8aL	.
.	.	8B-y	-spe-	8g	-spe-	8ee	-spe-	8gJ	.
.	.	2A	-ra-	2a	-ra-	2dd	-ra-	2f#X	.
1G	-to,	4G	-to	4b-y	-to	2dd	-to	4g	-to
.	.	4g	Per	4b-y	Per	.	.	4dd	Per
.	.	4g	non	4b-y	non	4r	.	4dd	non
.	.	4g	a-	4b-y	a-	4gg	Per	4dd	a-
=28	=28	=28	=28	=28	=28	=28	=28	=28	=28
0r	.	2g	-mar-	4b-y	-mar-	4gg	non	2dd	-mar-
.	.	.	.	4b-y	-vi	4gg	a-	.	.
.	.	2g	-vi	8g	non	2gg	-mar-	4dd	-vi
.	.	.	.	8f	es-	.	.	.	.
.	.	.	.	8e-X	-sen-	.	.	8gg	non
.	.	.	.	8d	-d'a-	.	.	8ff	es-
.	.	8g	non	4.c	-ma-	2gg	-vi	8ee-X	-sen-
.	.	8f	es-	.	.	.	.	8dd	-d'a-
.	.	8e-X	-sen-	.	.	.	.	2cc	-ma-
.	.	8d	-d'a-	8d	.	.	.	.	.
.	.	2c	-ma-	8e-XL	.	8gg	non	.	.
.	.	.	.	8fJ	.	8ff	es-	.	.
.	.	.	.	4g	.	8ee-X	-sen-	4g	-to,
.	.	.	.	.	.	8ee-i	-d'a-	.	.
=29	=29	=29	=29	=29	=29	=29	=29	=29	=29
1r	.	1d	-to,	4f#X	.	1dd	-am-	8dd	non
.	.	.	.	.	.	.	.	8cc	es-
.	.	.	.	2g	.	.	.	8b-y	-sen-
.	.	.	.	.	.	.	.	8b-y	-d'a-
.	.	.	.	.	.	.	.	2a	-ma-
.	.	.	.	4f#X	.	.	.	.	.
2r	.	1r	.	2g	-to,	2dd	-to,	2bnX	-to,
4G	Ma	.	.	4g	Ma	4bnX	Ma	4dd	Ma
4G	s'a-	.	.	4g	s'a-	4bnXi	s'a-	4dd	s'a-
=30	=30	=30	=30	=30	=30	=30	=30	=30	=30
2G	-mar-	0r	.	2g	-mar-	2bnXi	-mar-	2dd	-mar-
4G	-mi	.	.	4g	-mi	4bnXi	-mi	4dd	-mi
4c	ne-	.	.	4g	ne-	4cc	ne-	4ee	ne-
2B-y	-ga-	.	.	4b-y	-ga-	2dd	-ga-	2ff	-ga-
.	.	.	.	4b-y	-te,	.	.	.	.
4B-y	-te,	.	.	2r	.	4dd	-te,	4ff	-te,
8d	Mo-	.	.	.	.	8dd	Mo-	8ff	Mo-
8c	-ri-	.	.	.	.	8ee	-ri-	8ee	-ri-
=31	=31	=31	=31	=31	=31	=31	=31	=31	=31
4B-y	-rò	2r	.	4d	Mo-	2ff	-rò	4dd	-rò
8A	de-	.	.	4e	-ri-	.	.	8cc	de-
8G	-spe-	.	.	.	.	.	.	8b-y	-spe-
4F	-ra-	4r	.	2f	-rò	4r	.	4a	-ra-
4D	-to,	8d	Mo-	.	.	8ff	de-	4f	-to,
.	.	8c	-ri-	.	.	8ee	-spe-	.	.
2r	.	4B-y	-rò	4.f	de-	4dd	-ra-	2r	.
.	.	8A	de-	.	.	8cc	-to,	.	.
.	.	8G	-spe-	8g	-spe-	8b-y	Mo-	.	.
4r	.	4F	-ra-	2a	-ra-	4a	-ri-	4r	.
8d	Mo-	4D	-to,	.	.	4f	-rò,	8ff	Mo-
8c	-ri-	.	.	.	.	.	.	8ee	-ri-
=32	=32	=32	=32	=32	=32	=32	=32	=32	=32
4B-y	-rò	2r	.	4d	-to,	1r	.	4dd	-rò
8A	de-	.	.	8a	<Mo-	.	.	8cc	de-
8G	-spe-	.	.	8b-y	-ri-	.	.	8b-y	-spe-
4.F	-ra-	4r	.	4cc	-rò	.	.	4a	-ra-
.	.	8a	Mo-	8f	de-	.	.	4a	-to,
8E	.	8g	-ri-	8g	-spe-	.	.	.	.
4.D	.	2f	-rò,	4a	-ra-	4r	.	4r	.
.	.	.	.	4a	-to,>	8ff	<Mo-	8dd	<Mo-
8C	.	.	.	.	.	8ee	-ri-	8ee	-ri-
4.BB-y	.	4r	.	4r	.	4dd	-rò	2ff	-rò
.	.	8f	Mo-	8d	Mo-	8dd	de-	.	.
8C	.	8e	-ri-	8e	-ri-	8cc	-spe-	.	.
=33	=33	=33	=33	=33	=33	=33	=33	=33	=33
1D	.	4d	-rò	4f	-rò	4b-y	-ra-	4.ff	de-
.	.	8c	de-	8f	de-	8aL	.	.	.
.	.	8B-y	-spe-	8g	-spe-	8gJ	.	8ee	-spe-
.	.	2A	-ra-	2a	-ra-	2f#X	.	2dd	-ra-
1G	-to,	4G	-to	4b-y	-to	4g	-to>	2dd	-to>
.	.	4g	Per	4b-y	Per	4dd	Per	.	.
.	.	4g	non	4b-y	non	4dd	non	4r	.
.	.	4g	a-	4b-y	a-	4dd	a-	4gg	Per
=34	=34	=34	=34	=34	=34	=34	=34	=34	=34
0r	.	2g	-mar-	4b-y	-mar-	2dd	-mar-	4gg	non
.	.	.	.	4b-y	-vi	.	.	4gg	a-
.	.	2g	-vi	8g	non	4dd	-vi	2gg	-mar-
.	.	.	.	8f	es-	.	.	.	.
.	.	.	.	8e-X	-sen-	8gg	non	.	.
.	.	.	.	8d	-d'a-	8ff	es-	.	.
.	.	8g	non	4.c	-am-	8ee-X	-sen-	2gg	-vi
.	.	8f	es-	.	.	8dd	-d'a-	.	.
.	.	8e-X	-sen-	.	.	2cc	-ma-	.	.
.	.	8d	-d'a-	8d	.	.	.	.	.
.	.	2c	-ma-	8e-XL	.	.	.	8gg	non
.	.	.	.	8fJ	.	.	.	8ff	es-
.	.	.	.	4g	.	4g	-to,	8ee-X	-sen-
.	.	.	.	.	.	.	.	8ee-i	-d'a-
=35	=35	=35	=35	=35	=35	=35	=35	=35	=35
1r	.	1d	-to,	4f#X	.	8dd	non	1dd	-ma-
.	.	.	.	.	.	8cc	es-	.	.
.	.	.	.	2g	.	8b-y	-sen-	.	.
.	.	.	.	.	.	8b-y	-d'a-	.	.
.	.	.	.	.	.	2a	-ma-	.	.
.	.	.	.	4f#X	.	.	.	.	.
4r	.	2r	.	1g	-to,	1bnX	-to,	2dd	-to,
4G	Per	.	.	.	.	.	.	.	.
4G	non	4r	.	.	.	.	.	2dd	Per
4G	a-	4d	Per	.	.	.	.	.	.
=36	=36	=36	=36	=36	=36	=36	=36	=36	=36
2G	-mar-	4d	non	4r	.	0r	.	4b-y	non
.	.	4d	a-	4g	Per	.	.	4b-y	a-
2G	-vi	2d	-mar-	4g	non	.	.	2b-y	-mar-
.	.	.	.	4g	a-	.	.	.	.
8d	non	2G	-vi	1g	-mar-	.	.	4b-y	-vi
8c	es-	.	.	.	.	.	.	.	.
8B-y	-sen-	.	.	.	.	.	.	8dd	non
8A	-d'a-	.	.	.	.	.	.	8cc	es-
2G	-ma-	8g	non	.	.	.	.	8b-y	-sen-
.	.	8f	es-	.	.	.	.	8a	-d'a-
.	.	8e	-sen-	.	.	.	.	4b-y	-ma-
.	.	8d	-d'a-	.	.	.	.	.	.
=37	=37	=37	=37	=37	=37	=37	=37	=37	=37
1A	-to,	4c#X	-ma-	4e	-vi	1r	.	0a	-to,
.	.	2d	.	8a	non	.	.	.	.
.	.	.	.	8g	es-	.	.	.	.
.	.	.	.	8f	-sen-	.	.	.	.
.	.	.	.	8f	-d'a-	.	.	.	.
.	.	4c#X	.	4e	-ma-	.	.	.	.
2r	.	4d	-to,	4f#X	-to,	2r	.	.	.
.	.	4d	Per	4f#i	Per	.	.	.	.
4r	.	4d	non	4f#i	non	4r	.	.	.
4D	Per	4d	a-	4f#i	a-	4dd	Per	.	.
=38	=38	=38	=38	=38	=38	=38	=38	=38	=38
4D	non	4f	-mar-	4a	-mar-	4dd	non	2r	.
4D	a-	4f	-vi	4a	-vi	4dd	a-	.	.
2D	-mar-	8a	non	8d	non	4dd	-mar-	4r	.
.	.	8g	es-	8e	es-	.	.	.	.
.	.	8f	-sen-	8f	-sen-	4dd	-vi	4dd	Per
.	.	8e	-d'a-	8g	-d'a-	.	.	.	.
2D	-vi	4d	-ma-	4a	-ma-	8ff	non	4dd	non
.	.	.	.	.	.	8ee	es-	.	.
.	.	4d	-to,	4a	-to	8dd	-sen-	4dd	a-
.	.	.	.	.	.	8cc	-d'a-	.	.
8G	non	4r	.	4r	.	4b-y	-ma-	4dd	-mar-
8F	es-	.	.	.	.	.	.	.	.
8E-X	-sen-	4G	Per	4b-y	Per	4g	-to,	4gg	-vi
8D	-d'a-	.	.	.	.	.	.	.	.
=39	=39	=39	=39	=39	=39	=39	=39	=39	=39
*lig	*	*	*	*	*	*	*	*	*
1C	-ma-	4G	non	4cc	non	2r	.	8gg	non
.	.	.	.	.	.	.	.	8ff	es-
.	.	4G	a-	4cc	a-	.	.	8ee-X	-sen-
.	.	.	.	.	.	.	.	8dd	-d'a-
.	.	4G	-mar-	4g	-mar-	8gg	<non	4cc	-ma-
.	.	.	.	.	.	8ff	es-	.	.
.	.	4G	-vi	4g	-vi	8ee-X	-sen-	4cc	-to,
.	.	.	.	.	.	8ee-i	-d'a-	.	.
1D	.	8d	non	8f	non	2.dd	-ma-	8ff	non
*Xlig	*	*	*	*	*	*	*	*	*
.	.	8c	es-	8f	es-	.	.	8eenXi	es-
.	.	8B-y	-sen-	8g	-sen-	.	.	8dd	-sen-
.	.	8B-y	-d'a-	8g	-d'a-	.	.	8dd	-d'a-
.	.	2A	-ma-	2f#X	-ma-	.	.	2dd	-ma-
.	.	.	.	.	.	4a	.	.	.
=40	=40	=40	=40	=40	=40	=40	=40	=40	=40
0G;l	-to.	0G;l	-to.	0g;l	-to.	0bnX;l	-to.>	0dd;l	-to.
==	==	==	==	==	==	==	==	==	==
*-	*-	*-	*-	*-	*-	*-	*-	*-	*-
!!!system-decoration: [*]
!!!RDF**kern: i = editorial accidental
!!!RDF**kern: l = terminal long
!!!ENC: Emiliano Ricciardi
!!!END:
!!!EED: Ricciardi, Emiliano
!!!EEV: 2020/03/04
!!!YEC: Copyright 2018 Emiliano Ricciardi, All Rights Reserved
!!!ONB: Translated from MusicXML on 2020/03/04
!!@@BEGIN:	VERSEDATA
!!@SOLERTI:	288
!!@CATALOGNUM:	Trm0288
!!@LAST_MODIFIED: 2020/07/12
!!@ATTRIBUTION:	not secure
!!@TITLE:		Amatemi, ben mio
!!@GENRE:		madrigale
!!@MANUSRC:	none
!!@PRINTSRC:	23, 26, 36, 37, 69, 141, 145, 166, 169
!!@@BEGIN:	VERSES
!!@ABOUTIT:
!!@ABOUTEN:
!!@EDITOR:	Solerti, Angelo
!!@EDITION_TITLE: Le Rime di Torquato Tasso
!!@EDITION_LOC:	Bologna
!!@EDITION_PUB:	Romagnoli-Dall’Acqua
!!@EDITION_DATE:  1898-1902
!!@EDITION_VOL:	2
!!@EDITION_PAGE:  357
!!@TRANSLATOR:	Emiliano Ricciardi and Amyrose McCue Gill
!!@VERSE:
!!	Amatemi, ben mio,
!!	Perché sdegna il mio core
!!	Ogni altro cibo e vive sol d'amore.
!!	V'amerò, se m'amate,
!!	Né men de la mia vita
!!	L'amor fia lungo e fia con lui finita.
!!	Ma s'amarmi negate,
!!	Morirò disperato
!!	Per non amarvi non essendo amato.
!!@TVERSE:
!!	Love me, my dear,
!!	Because my heart scorns
!!	All other food and lives only on love.
!!	I will love you, if you love me,
!!	Nor less than my life
!!	May love last and [my life] end with [love].
!!	But if you refuse to love me
!!	I will die in despair
!!	For not loving you, not being loved.
!!@@END:		VERSES
!!@OTHER_CRIT_ED:   None
!!@ATTRIBUTION_ABOUT:	Not secure
!!		<br>
!!		This poem is attributed to Tasso only in a print that was not supervised by him and in reprints thereofr (see Literary Sources).
!!@DATING:	In or before 1585
!!		<br>
!!		The earliest appearence of this poem is in a literary print and in two musical settings published in 1585 (see Literary Sources and Musical Settings).
!!@DEDICATEE:
!!@COMMENTARY:
!!@@END:		VERSEDATA
!!@@BEGIN:	SETTING
!!@CATALOGNUM:	Trm0288c
!!@RIMETITLE:	Amatemi, ben mio
!!@SOLERTI:	288
!!@COMPOSER:	Giovannelli, Ruggiero
!!@PRINCEPSTITLE:	Il primo libro de madrigali a cinque voci
!!@PRINCEPSLOC:	Venetia
!!@NORMLOC:	Venice
!!@NORMPUB:	Angelo Gardano
!!@NORMPUBSHORT:	Gardano
!!@PRINCEPSPUB:	Gardano
!!@PRINCEPSYEAR:	1586
!!@PRINCEPSRISM:	G 2459
!!@REPRINTS:	G2460, G2464, G2465, G2488
!!@OVOICES:	5
!!@EXTANTVOICES:	5
!!@PARTBOOKS:	
!!@EXTPARTBOOKS:	
!!@OCLEFS:	G2,G2,C2,C3,F3
!!@OMENSURATION:	C
!!@OKEYSIG:	b-
!!@FINAL:	G
!!@TIMPEDITOR:	Ricciardi, Emiliano
!!@NOTE:		
!!@@END:		SETTING
